!!!OTL: ALS ICH EIN JUNG GESELLE WAR
!!!ARE: Europa, Mitteleuropa, Deutschland, Ober - Deutschland
!!!SCT: Z0129
!!!YEM: Copyright 1995, estate of Helmut Schaffrath.
**kern
*ICvox
*Ivox
*M2/4
*k[b-]
*F:
{8c
=1
8f
8a
8a
8g
=2
8g
8f
8f}
{8f
=3
8a
8cc
8cc
8a
=4
4g
8r}
{8c
=5
8f
8a
8a
8g
=6
8g
8f
8f}
{8f
=7
8a
8cc
8cc
8a
=8
4g
8r}
{8f
=9
8a
8cc
8cc
8cc
=10
4cc
4a}
=11
{4ff
4dd
=12
4cc
8a}
{8cc
=13
8b-
8g
8f
8e
=14
8f
8a
8cc}
{8a
=15
8b-
8g
8f
8e
=16
4.f}
==
!!!AGN: Erzaehlung, lustige Romanze
!!!ONB: ESAC (Essen Associative Code) Database: ZUCCAL
!!!AMT: simple duple
!!!AIN: vox
!!!EED: Helmut Schaffrath
!!!EEV: 1.0
*-
